X: 1
T: Petronella   [D]
M: C|
R: reel
Z: 2022 John Chambers <jc:trillian.mit.edu>
K: D
|: dA |:\
"D"F2AF "A"E2AF | "D"D2D2 D2FA |\
[1,3 d2cd "E"e2d2 | "A"cdBc ABAG :|\
[2,4 d2cd "A"e2c2 | "D"d2[f2d2] d2 :|
|: dA |:\
"D"F2fd "D7"A2af | "G"g2gf "Em"edcB |\
[1,3 "A"A2ec Aceg | "D"f2{a}fd AdAF :|\
[2,4 "A"A2ec Agec | "D"d2[f2d2] d2 :|


